svgs/duotone/dice-five.svg

<svg xmlns="http://www.w3.org/2000/svg" viewBox="0 0 448 512"><!-- Font Awesome Pro 6.0.0-alpha2 by @fontawesome - https://fontawesome.com License - https://fontawesome.com/license (Commercial License) --><defs><style>.fa-secondary{opacity:.4}</style></defs><path d="M384 32H64C28.625 32 0 60.625 0 96V416C0 451.375 28.625 480 64 480H384C419.375 480 448 451.375 448 416V96C448 60.625 419.375 32 384 32ZM128 384C110.375 384 96 369.625 96 352S110.375 320 128 320S160 334.375 160 352S145.625 384 128 384ZM128 192C110.375 192 96 177.625 96 160S110.375 128 128 128S160 142.375 160 160S145.625 192 128 192ZM224 288C206.375 288 192 273.625 192 256S206.375 224 224 224S256 238.375 256 256S241.625 288 224 288ZM320 384C302.375 384 288 369.625 288 352S302.375 320 320 320S352 334.375 352 352S337.625 384 320 384ZM320 192C302.375 192 288 177.625 288 160S302.375 128 320 128S352 142.375 352 160S337.625 192 320 192Z " class="fa-secondary"></path><path d="M320 192C337.625 192 352 177.625 352 160S337.625 128 320 128S288 142.375 288 160S302.375 192 320 192ZM320 320C302.375 320 288 334.375 288 352S302.375 384 320 384S352 369.625 352 352S337.625 320 320 320ZM128 320C110.375 320 96 334.375 96 352S110.375 384 128 384S160 369.625 160 352S145.625 320 128 320ZM128 128C110.375 128 96 142.375 96 160S110.375 192 128 192S160 177.625 160 160S145.625 128 128 128ZM224 224C206.375 224 192 238.375 192 256S206.375 288 224 288S256 273.625 256 256S241.625 224 224 224Z " class="fa-primary"></path></svg>

<svg xmlns="http://www.w3.org/2000/svg" viewBox="0 0 448 512"><!-- Font Awesome Pro 5.15.1 by @fontawesome - https://fontawesome.com License - https://fontawesome.com/license (Commercial License) --><defs><style>.fa-secondary{opacity:.4}</style></defs><path d="M384 32H64A64 64 0 0 0 0 96v320a64 64 0 0 0 64 64h320a64 64 0 0 0 64-64V96a64 64 0 0 0-64-64zM128 384a32 32 0 1 1 32-32 32 32 0 0 1-32 32zm0-192a32 32 0 1 1 32-32 32 32 0 0 1-32 32zm96 96a32 32 0 1 1 32-32 32 32 0 0 1-32 32zm96 96a32 32 0 1 1 32-32 32 32 0 0 1-32 32zm0-192a32 32 0 1 1 32-32 32 32 0 0 1-32 32z" class="fa-secondary"/><path d="M320 192a32 32 0 1 0-32-32 32 32 0 0 0 32 32zm0 128a32 32 0 1 0 32 32 32 32 0 0 0-32-32zm-96-96a32 32 0 1 0 32 32 32 32 0 0 0-32-32zm-96-96a32 32 0 1 0 32 32 32 32 0 0 0-32-32zm0 192a32 32 0 1 0 32 32 32 32 0 0 0-32-32z" class="fa-primary"/></svg>
